!!!COM: Bach, Johann Sebastian
!!!OPR: Joh. Seb. Bachs vierstimmige Choralges‰nge
!!!XEN: Four-part Chorales
!!!OTL: 36. Das alte Jahr vergangen ist
!!!SCT: BWV 289
!!!SCA: Thematisch-systematisches Verzeichnis der musikalischen Werke Johann Sebastian Bach: Bach-Werke-Verzeichnis (Schmieder)
!!!YOR: Bach Gesellschaft Edition xxxix
!!!ENC: Steven Rasmussen
!!!CDT: 1685/3//-1750/7/28/
!!!OCY: Deutschland
!!!YEC: Copyright (c) 1994, 2000 Center for Computer Assisted Research in the Humanities
!!!YEM: Rights to all derivative editions reserved
!!!YEN: United States of America
**kern	**kern	**kern	**kern	**silbe
*I:[BASSO]	*I:[TENORE]	*I:[ALTO]	*I:[SOPRANO]	*I:[SOPRANO]
*clefF4	*clefGv2	*clefG2	*clefG2	*
*k[f#]	*k[f#]	*k[f#]	*k[f#]	*
*e:	*e:	*e:	*e:	*
*M4/4	*M4/4	*M4/4	*M4/4	*
8BL	4d#	4f#	4b	Das?
8AJ	.	.	.	.
=1	=1	=1	=1	=1
8GL	4e	4g	4b	al-
8EJ	.	.	.	.
4C#	4A	4e	8aL	-te
.	.	.	8gJ	.
4D	4A	4d	4f#	Jahr
8BBL	4d	4g	4b	ver-
8GGJ	.	.	.	.
=2	=2	=2	=2	=2
4D	4d	4f#	8aL	-gan-
.	.	.	8gJ	.
4D#	8cL	4f#	4f#	-gen
.	8BJ	.	.	.
4E;	4B;	4e;	4g;	ist,
8EL	4e	4g#	4b	wir
8DnJ	.	.	.	.
=3	=3	=3	=3	=3
4C	4e	4e	4b	dan-
4C#	4A	4e	8aL	-ken
.	.	.	8gJ	.
4D	4A	8eL	4f#	dir,
.	.	8dJ	.	.
4GG#	4Fn	4d	4b	Herr
=4	=4	=4	=4	=4
4AA	4E	4c	8aL	Je-
.	.	.	8gJ	.
4DD#	4F#	8cL	4f#	-su
.	.	8BJ	.	.
4EE;	4E;	4B;	4g;	Christ,
4E	4B	4g	4b	dass
=5	=5	=5	=5	=5
4AA	4A	4g	4cc#	du
4A	4B	4f#	4dd#	uns
4G#	4B	4e	4ee	in
4Gn	4B	4e	8bL	so
.	.	.	8cc#J	.
=6	=6	=6	=6	=6
8F#L	4B	4f#	4dd	gro-
8EJ	.	.	.	.
4F#	8A#L	4f#	4cc#	-sser
.	8eJ	.	.	.
4BB;	4d;	4f#;	4b;	G'fahr
4AA#	4c#	4f#	4cc#	be-
=7	=7	=7	=7	=7
4BB	8c#L	4f#	4dd	-h√º-
.	8BJ	.	.	.
4F#	8BL	4f#	4cc#	-tet
.	8AJ	.	.	.
8GL	4B	8f#L	4b	hast
8F#J	.	8dJ	.	.
8EL	4B	8gL	4b	lang'
8DJ	.	8f#J	.	.
=8	=8	=8	=8	=8
4C	8cL	4e	8aL	Zeit
.	8BJ	.	8gJ	.
4D	4A	8dL	4f#	und
.	.	8cJ	.	.
4GG;	4G;	4B;	4g;	Jahr;
4C#	4G	4e	4a	dass
=9	=9	=9	=9	=9
4D	4F#	4d	4a	du
4GG	8GL	4d	4b	uns
.	8F#J	.	.	.
4AA	4E	4c#	8aL	in
.	.	.	8gJ	.
4BB	4B	4d#	4f#	so
=10	=10	=10	=10	=10
8EEL	4B	4e	4g	gro-
8FF#J	.	.	.	.
8GGL	4B	4e	4g	-sser
8AAJ	.	.	.	.
4BB;	4B;	(8eL	4f#;	G'fahr
.	.	8d;J)	.	.
4AA#	4c#	4f#	4cc#	be-
=11	=11	=11	=11	=11
4BB	4B	4f#	4dd	-h√º-
4E	4A#	4g	4cc#	-tet
8DL	8BL	4f#	4b	hast
8C#J	8c#J	.	.	.
8BBL	8dL	4f#	4f#	lang'
8AAJ	8c#J	.	.	.
=12	=12	=12	=12	=12
4GG#	4B	4f#	4b	Zeit
4C#	4c#	4e#	4b	und
4FF#;	4c#;	4f#;	4a#;	Jahr.
==|!	==|!	==|!	==|!	==|!
!!!RNB1: *) Strictly speaking, its key signature classifies this chorale
!!!RNB2: in notational "Locrian" mode!
*-	*-	*-	*-	*-
!!!RWG: Key is interpreted using the Humdrum key tool.
!!!END: 1994/05/16
!!!EMD: Converted from MuseData to Humdrum Dec 19, 2000, by Andreas Kornstaedt using muse2kern.
!!!EED: Craig Stuart Sapp
!!!EEV: 2024/03/31
!!!ONB: Some non-unicode characters
!!!filter-keyboard: satb2gs
